X:2
T:Did You Ever See A Lassie?
%%score 1 { 2 | 3 }
L:1/4
Q:1/4=180
M:3/4
I:linebreak $
K:G
V:1 treble nm="Violin"
V:2 treble nm="Piano"
V:3 bass 
V:1
G/B/ |:"G" d3/2 e/ d/c/ | B G G |"D" A D D |"G" B G G/B/ |$"G" d3/2 e/ d/c/ | B G G |"D" A D D | 
w: Did you|ev- er see a|lass- ie, a|lass- ie, a|lass- ie, Did you|ev- er see a|lass- ie Do|this way and|
"G" G z F/G/ |$"D" A D D |"G" B G G |"D" A D D |"G" B G G/B/ |$"G" d3/2 e/ d/c/ | B G G | 
w: that? Do _|this way and|that way, Do|this way and|that way, Did you|ev- er see a|lass- ie Do|
"D" A D D |"G" G2 z :| 
w: this way and|that!|
V:2
G/B/ |: d3/2 e/ d/c/ | B G G | A D D | B G G/B/ |$ d3/2 e/ d/c/ | B G G | A D D | [DG] z F/G/ |$ 
A D D | B G G | A D D | B G G/B/ |$ d3/2 e/ d/c/ | B G G | A D D | [DG]2 z :| 
V:3
z |: G, B, D | G, B, D | F, A, C | G, B, D |$ G, B, D | G, B, D | D, F, C | [G,B,] z z |$ 
D, C F, | G, B, D | D, C F, | G, D B, |$ G, B, D | G, B, D | D, F, C | [G,B,]2 z :| 

